X: 147
T: Queen's Jig, The
M:4/4
L:1/8
Q:160
S:Playford
O:Manuscript
A:English
K:D
A|d2 e gdg|e3 d2 f/4g/4a/2|fgf e2 d|e3 G2A|d2 e gdg|e3 d2 f/4g/4a/2|fgf e2 d|d3 d2:|
|: a|aba g2 f|g3 f2 f/4g/4a/2| fgf e2 d|e3 G2 A|d2 e fdf|g3 f2 f/4g/4a/2|fgf e2 d d3 d2:|

